/* XPM */
static const char *C1[] = {
/* columns rows colors chars-per-pixel */
"32 32 3 1 ",
"  c black",
". c #27DE69",
"X c None",
/* pixels */
"XXXXXXXXXXXXXXXXXXXXXXXXXXXXXXXX",
"XXXXXXXXXXXXXXXXXXXXXXXXXXXXXXXX",
"XXXXXXXXXXXX.....XXXXXXXXXXXXXXX",
"XXXXXXXXX...........XXXXXXXXXXXX",
"XXXXXXXX.............XXXXXXXXXXX",
"XXXXXXXX..............XXXXXXXXXX",
"XXXXXXX.....  ..  .....XXXXXXXXX",
"XXXXXXX....   ..   ....XXXXXXXXX",
"XXXXXX....    ..    ...XXXXXXXXX",
"XXXXXX...    ....    ..XXXXXXXXX",
"XXXXXX....   ......  ..XXXXXXXXX",
"XXXXXX.................XXXXXXXXX",
"XXXXXXX................XXXXXXXXX",
"XXXXXXX.....    .......XXXXXXXXX",
"XXXXXXX......   ......XXXXXXXXXX",
"XXXXXXXX.....    .....XXXXXXXXXX",
"XXXXXXXX.....    ....XXXXXXXXXXX",
"XXXXXXXXX.....   ...XXXXXXXXXXXX",
"XXXXXXXXX...........XXXXXXXXXXXX",
"XXXXXXXXX..........XXXXXXXXXXXXX",
"XXXXXXXXXX.........XXXXXXXXXXXXX",
"XXXXXXXXXXX........XXXXXXXXXXXXX",
"XXXXXXXXXXXX.......XXXXXXXXXXXXX",
"XXXXXXXXXXXXX.......XXXXXXXXXXXX",
"XXXXXXXXXXXXXX.......XXXXXXXXXXX",
"XXXXXXXXXXXXXXX......XXXXXXXXXXX",
"XXXXXXXXXXXXXXX........XXXXXXXXX",
"XXXXXXXXXXXXXXXXX..........XXXXX",
"XXXXXXXXXXXXXXXXXXXX......XXXXXX",
"XXXXXXXXXXXXXXXXXXXXXXXXXXXXXXXX",
"XXXXXXXXXXXXXXXXXXXXXXXXXXXXXXXX",
"XXXXXXXXXXXXXXXXXXXXXXXXXXXXXXXX"
};
