/* XPM */
static const char *E1[] = {
/* columns rows colors chars-per-pixel */
"32 32 11 1 ",
"  c black",
". c #161B18",
"X c #252A27",
"o c #323534",
"O c #05F165",
"+ c #4CDC86",
"@ c #8DD7AB",
"# c #ABD7BC",
"$ c #BACFC2",
"% c white",
"& c None",
/* pixels */
"&&&&&&&&&&&&&&&&&&&&&&&&&&&&&&&&",
"&&&&&&&&&&&&&&&&&&&&&&&&&&&&&&&&",
"&&&&&&&&&&&&&&&&&&&&&&&&&&&&&&&&",
"&&&&&&&&&&&&&&&&&&&&&&&&&&&&&&&&",
"&&&&&&&&&&&&&&&&&&&&&&&&&&&&&&&&",
"&&&&&&&&&&&&         &&&&&&&&&&&",
"&&&&&&&&&               &&&&&&&&",
"&&&&&&&&                 &&&&&&&",
"&&&&&&                     &&&&&",
"&&&&&    .............      &&&&",
"&&&&    ................     &&&",
"&&&&  ...XXXXXXXXXXXXXX....  &&&",
"&&& ...XXXooooooooooooXXXX..  &&",
"&&& .XXoooo$$$$$$$$$$ooooXX.  &&",
"&&& XXoo$$$$OOOOOOOO$$$$ooX.  &&",
"&&& Xoo$$OOOOOOOOOOOOOO$$$oX  &&",
"&&& Xo$$OOOOOOOOOOOOOOOOO$oX  &&",
"&&& Xo+++++++++++++++++++++   &&",
"&&&& o+++++++++++++++++++++  &&&",
"&&&&  ++@@@@@@@@@@@@@@@@@+   &&&",
"&&&&&   @@@@@@@@@@@@@@@@@   &&&&",
"&&&&&&   @#############@   &&&&&",
"&&&&&&&&  #############  &&&&&&&",
"&&&&&&&&&  ..%%%%%%%.   &&&&&&&&",
"&&&&&&&&&&&&         &&&&&&&&&&&",
"&&&&&&&&&&&&&&&&&&&&&&&&&&&&&&&&",
"&&&&&&&&&&&&&&&&&&&&&&&&&&&&&&&&",
"&&&&&&&&&&&&&&&&&&&&&&&&&&&&&&&&",
"&&&&&&&&&&&&&&&&&&&&&&&&&&&&&&&&",
"&&&&&&&&&&&&&&&&&&&&&&&&&&&&&&&&",
"&&&&&&&&&&&&&&&&&&&&&&&&&&&&&&&&",
"&&&&&&&&&&&&&&&&&&&&&&&&&&&&&&&&"
};
