/* XPM */
static const char *E2[] = {
/* columns rows colors chars-per-pixel */
"32 32 11 1 ",
"  c black",
". c #161B18",
"X c #252A27",
"o c #323534",
"O c #05F165",
"+ c #4CDC86",
"@ c #8DD7AB",
"# c #ABD7BC",
"$ c #BACFC2",
"% c white",
"& c None",
/* pixels */
"&&&&&&&&&&&&&&&&&&&&&&&&&&&&&&&&",
"&&&&&&&&&&&&&&&&&&&&&&&&&&&&&&&&",
"&&&&&&&&&&&&&&&&&&&&&&&&&&&&&&&&",
"&&&&&&&&&&&&&&&&&&&&&&&&&&&&&&&&",
"&&&&&&&&&&&&&&&&&&&&&&&&&&&&&&&&",
"&&&&&&&&&&&&         &&&&&&&&&&&",
"&&&&&&&&&               &&&&&&&&",
"&&&&&&&&                 &&&&&&&",
"&&&&&&    .............    &&&&&",
"&&&&&  ....XXXXXXXXXXX...   &&&&",
"&&&&   .XXXXXXXXXXXXXXXX..   &&&",
"&&&&  ..XooooooooooooooXX..  &&&",
"&&& ...Xooo$$$$$$$$$$$ooXX..  &&",
"&&& .XXoo$$$$$$$$$$$$$$ooXX.  &&",
"&&& XXoo$$OOOOOOOOOOOO$$ooX.  &&",
"&&& Xoo$$OOO++++++++++O$$$oX  &&",
"&&& Xo$$OO++++++++++++OOO$oX  &&",
"&&& Xo+++++++++++++++++++++   &&",
"&&&& o++++@@@@@@@@@@@@@++++  &&&",
"&&&&  ++@@@@@@@@@@@@@@@@@+   &&&",
"&&&&&   @@@@#########@@@@   &&&&",
"&&&&&&   @#############@   &&&&&",
"&&&&&&&&  ###%%%%%%%###  &&&&&&&",
"&&&&&&&&&  .%%%%%%%%%   &&&&&&&&",
"&&&&&&&&&&&&         &&&&&&&&&&&",
"&&&&&&&&&&&&&&&&&&&&&&&&&&&&&&&&",
"&&&&&&&&&&&&&&&&&&&&&&&&&&&&&&&&",
"&&&&&&&&&&&&&&&&&&&&&&&&&&&&&&&&",
"&&&&&&&&&&&&&&&&&&&&&&&&&&&&&&&&",
"&&&&&&&&&&&&&&&&&&&&&&&&&&&&&&&&",
"&&&&&&&&&&&&&&&&&&&&&&&&&&&&&&&&",
"&&&&&&&&&&&&&&&&&&&&&&&&&&&&&&&&"
};
