/* XPM */
static const char *enemy[] = {
/* columns rows colors chars-per-pixel */
"32 32 3 1 ",
"  c red",
". c white",
"X c None",
/* pixels */
"XXXXXXXXXXXXXXXXXXXXXXXXXXXXXXXX",
"XXXXXXXXXXXXXXXXXXXXXXXXXXXXXXXX",
"XXXXXXXXXXXXX       XXXXXXXXXXXX",
"XXXXXXXXXX   .......   XXXXXXXXX",
"XXXXXXXXX ...       ... XXXXXXXX",
"XXXXXXX  ..  XXXXXXX  ..  XXXXXX",
"XXXXXX ..  XXXXXXXXXXX  .. XXXXX",
"XXXXX .. XXXXXXXXXXXXXXX .. XXXX",
"XXXXX . .  XXXXXXXXXXX  . . XXXX",
"XXXX . X... XXXXXXXXX ...X . XXX",
"XXX .. X . .  XXXXX  . . X .. XX",
"XXX . XXX.  .. XXX ..X . XX . XX",
"XXX . XXX . X .   . XX. XXX . XX",
"XX . XXXX . XX ... XXX. XXXX . X",
"XX . XXXXX . X . .  X. XXXXX . X",
"XX . XXXXX . .. X .. . XXXXX . X",
"XX . XXXXX ..  XXX  .. XXXXX . X",
"XX . XXXX ... XXXXX ... XXXX . X",
"XX . XX  .  . XXXXX .  .  XX . X",
"XX . X .. XX .     . XX .. X . X",
"XXX . ..................... . XX",
"XXX .        .     .        . XX",
"XXX .. XXXXXX .XXX. XXXXXX .. XX",
"XXXX . XXXXXX . X . XXXXXX . XXX",
"XXXXX . XXXXXX .X. XXXXXX . XXXX",
"XXXXX .. XXXXX . . XXXXX .. XXXX",
"XXXXXX ..  XXXX . XXXX  .. XXXXX",
"XXXXXXX  ..  XX . XX  ..  XXXXXX",
"XXXXXXXXX ...       ... XXXXXXXX",
"XXXXXXXXXX   .......   XXXXXXXXX",
"XXXXXXXXXXXXX       XXXXXXXXXXXX",
"XXXXXXXXXXXXXXXXXXXXXXXXXXXXXXXX"
};
