/* XPM */
static const char *P_afk2[] = {
/* columns rows colors chars-per-pixel */
"32 32 4 1 ",
"  c black",
". c #B5AEA8",
"X c #E4D7CC",
"o c None",
/* pixels */
"oooooooooooooooooooooooooooooooo",
"oooooooooooooooooooooooooooooooo",
"oooooooooooooooooooooooooooooooo",
"oooooooooooooooooooooooooooooooo",
"oooooooooooooooooooooooooooooooo",
"oooooooooooooooooooooooooooooooo",
"ooooooooooooooXXXXXXXooooooooooo",
"ooooooooooooXXXXXXXXXXXooooooooo",
"oooooooooooXXXXXXXXXXXXXoooooooo",
"ooooooooooXXXXXXXXXXXXXXXooooooo",
"oooooooooXXXXXXXXXXXXXXXXXoooooo",
"ooooooooXXXXXXXXXXXXXXXXXXXooooo",
"o..oooooXXXXXXXXXXXXXXXXXXXooooo",
"oo..oooXXXXX XXXXXXXXX XXXXXoooo",
"o....ooXXXX    XXXXX    XXXXoooo",
"ooo..ooXXXX     XXX     XXXX..oo",
"oooo...XXXXX   XXXXX   XXXXXo.oo",
"ooooo..XXXXXXXXXXXXXXXXXXXXXo..o",
"oooooooXXXXXXXXXXXXXXXXXXXXXoo..",
"ooooooooXXXXXXXXXXXXXXXXXXXooo..",
"ooooooooXXXX XXXXXXXXXX XXXooo..",
"oooooooooXXX  X XXXX X  XXooo.oo",
"ooooooooooXXX           Xooooooo",
"oooooooooooXX  XX   X XXoooooooo",
"ooooooooooooXXXXXX XXXXooooooooo",
"ooooooooooooooXXXXXXXooooooooooo",
"oooooooooooooooooooooooooooooooo",
"oooooooooooooooooooooooooooooooo",
"oooooooooooooooooooooooooooooooo",
"oooooooooooooooooooooooooooooooo",
"oooooooooooooooooooooooooooooooo",
"oooooooooooooooooooooooooooooooo"
};
