/* XPM */
static const char *P_afk1[] = {
/* columns rows colors chars-per-pixel */
"32 32 4 1 ",
"  c black",
". c #B5AEA8",
"X c #E4D7CC",
"o c None",
/* pixels */
"oooooooooooooooooooooooooooooooo",
"oooooooooooooooooooooooooooooooo",
"oooooooooooooooooooooooooooooooo",
"oooooooooooooooooooooooooooooooo",
"oooooooooooooooooooooooooooooooo",
"oooooooooooooooooooooooooooooooo",
"ooooooooooooXXXXXXXooooooooooooo",
"ooooooooooXXXXXXXXXXXooooooooooo",
"oooooooooXXXXXXXXXXXXXoooooooooo",
"ooooooooXXXXXXXXXXXXXXXooooooooo",
"oooooooXXXXXXXXXXXXXXXXXooooo.oo",
"ooooooXXXXXXXXXXXXXXXXXXXoooo.oo",
"ooooooXXXXXXXXXXXXXXXXXXXooo...o",
"oooooXXXXX   XXXXX   XXXXXo...oo",
"oooooXXXX     XXX     XXXXo.o.oo",
"oooooXXXX     XXX     XXXX..o..o",
"oooo.XXXXX   XXXXX   XXXXXoooooo",
"ooo..XXXXXXXXXXXXXXXXXXXXXoooooo",
"o...oXXXXXXXXXXXXXXXXXXXXXoooooo",
"...oooXXXXXX  X   XX XXXXooooooo",
"o..oooXXXX            XXXooooooo",
"...ooooXXX            XXoooooooo",
"....ooooXXX           Xooooooooo",
"o...oooooXX  XX   X XXoooooooooo",
"ooooooooooXXXXXX XXXXooooooooooo",
"ooooooooooooXXXXXXXooooooooooooo",
"oooooooooooooooooooooooooooooooo",
"oooooooooooooooooooooooooooooooo",
"oooooooooooooooooooooooooooooooo",
"oooooooooooooooooooooooooooooooo",
"oooooooooooooooooooooooooooooooo",
"oooooooooooooooooooooooooooooooo"
};
