/* XPM */
static const char *P_down3[] = {
/* columns rows colors chars-per-pixel */
"32 32 4 1 ",
"  c black",
". c #B5AEA8",
"X c #E4D7CC",
"o c None",
/* pixels */
"oooooooooooooooooooooooooooooooo",
"oooooooooooooooooooooooooooooooo",
"oooooooooooooooooooooooooooooooo",
".oo.oooooooooooooooooooooooooooo",
"..o.o.oooooooooooooooooooooooooo",
"o.o.o.oooooooXXXXXXXoooooooooooo",
"o...o.oooooXXXXXXXXXXXoooooooooo",
"oo....ooooXXXXXXXXXXXXXooooooooo",
"ooo..ooooXXXXXXXXXXXXXXXoooooooo",
"ooo.ooooXXXXXXXXXXXXXXXXXooooooo",
"ooo.oooXXXXXXXXXXXXXXXXXXXoooooo",
"ooo.oooXXXXXXXXXXXXXXXXXXXoooooo",
"oo.oooXXXXX   XXXXX   XXXXXooooo",
"oo..ooXXXX     XXX     XXXXooooo",
"ooo.ooXXXX     XXX     XXXX..ooo",
"oooo..XXXXX   XXXXX   XXXXXo.ooo",
"ooooo.XXXXXXXXXXXXXXXXXXXXXo.ooo",
"ooooooXXXXXXXXXXXXXXXXXXXXXo..oo",
"oooooooXXXXXXXXXXXXXXXXXXXooo.oo",
"oooooooXXXX XXX XXX XX XXXooo.oo",
"ooooooooXXX  X  XXX  X XXoooo.oo",
"oooooooooXXX     X     Xooooo.oo",
"ooooooooooXX  XX   XXXXoooooo.oo",
"oooooooooooXXXXXX XXXXoooooo..oo",
"oooooooooooooXXXXXXXoooooooo.ooo",
"ooooooooooooooooooooooooo......o",
"ooooooooooooooooooooooooo.oo.o.o",
"ooooooooooooooooooooooooo.oo.o.o",
"ooooooooooooooooooooooooo.oo.ooo",
"oooooooooooooooooooooooooooooooo",
"oooooooooooooooooooooooooooooooo",
"oooooooooooooooooooooooooooooooo"
};
