/* XPM */
static const char *P_down1[] = {
/* columns rows colors chars-per-pixel */
"32 32 4 1 ",
"  c black",
". c #B5AEA8",
"X c #E4D7CC",
"o c None",
/* pixels */
"oooooooooooooooooooooooooooooooo",
"oooooooooooooooooooooooooooooooo",
"ooooooooooooooooooooooooo..o.o.o",
"oooooooooooooooooooooooooo...o.o",
"oooooooooooooooooooooooooo.....o",
"oooooooooooooXXXXXXXoooooooo..oo",
"oooooooooooXXXXXXXXXXXooooooo.oo",
"ooooooooooXXXXXXXXXXXXXoooooo.oo",
"oooooooooXXXXXXXXXXXXXXXooooo.oo",
"ooooooooXXXXXXXXXXXXXXXXXoooo.oo",
"oooooooXXXXXXXXXXXXXXXXXXXooo.oo",
"oooooooXXXXXXXXXXXXXXXXXXXooo.oo",
"ooooooXXXXX   XXXXX   XXXXXo..oo",
"ooooooXXXX     XXX     XXXXo.ooo",
"ooooooXXXX     XXX     XXXX..ooo",
"ooooo.XXXXX   XXXXX   XXXXXooooo",
"oooo..XXXXXXXXXXXXXXXXXXXXXooooo",
"ooo..oXXXXXXXXXXXXXXXXXXXXXooooo",
"ooo.oooXXXXXXXXXXXXXXXXXXXoooooo",
"oo..oooXXXX XXX XXX XX XXXoooooo",
"oo.oooooXXX  X  XXX  X XXooooooo",
"oo.ooooooXXX     X     Xoooooooo",
"oo.oooooooXX  XX   XXXXooooooooo",
"oo..oooooooXXXXXX XXXXoooooooooo",
"ooo.oooooooooXXXXXXXoooooooooooo",
"ooo.oooooooooooooooooooooooooooo",
"oo...ooooooooooooooooooooooooooo",
"o.....oooooooooooooooooooooooooo",
"..o.o.oooooooooooooooooooooooooo",
"ooo.oooooooooooooooooooooooooooo",
"oooooooooooooooooooooooooooooooo",
"oooooooooooooooooooooooooooooooo"
};
