/* XPM */
static const char *P_down2[] = {
/* columns rows colors chars-per-pixel */
"32 32 4 1 ",
"  c black",
". c #B5AEA8",
"X c #E4D7CC",
"o c None",
/* pixels */
"oooooooooooooooooooooooooooooooo",
"oooooooooooooooooooooooooooooooo",
"oooooooooooooooooooooooooooooooo",
"oooooooooooooooooooooooooooooooo",
"oooooooooooooooooooooooooooooooo",
"oooooooooooooooooooooooooooooooo",
"oooooooooooooXXXXXXXoooooooooooo",
"oooooooooooXXXXXXXXXXXoooooooooo",
"ooooooooooXXXXXXXXXXXXXooooooooo",
"oooooooooXXXXXXXXXXXXXXXoooooooo",
"ooooooooXXXXXXXXXXXXXXXXXooooo.o",
"oooooooXXXXXXXXXXXXXXXXXXXoooo.o",
"oooooooXXXXXXXXXXXXXXXXXXXooo...",
"ooooooXXXXX   XXXXX   XXXXXo...o",
"ooooooXXXX     XXX     XXXXo.o.o",
"ooooooXXXX     XXX     XXXX..o..",
"ooooo.XXXXX   XXXXX   XXXXXooooo",
"oooo..XXXXXXXXXXXXXXXXXXXXXooooo",
"oo...oXXXXXXXXXXXXXXXXXXXXXooooo",
"....oooXXXXXX  X   XX XXXXoooooo",
"oo..oooXXXX            XXXoooooo",
"o...ooooXXX            XXooooooo",
".....ooooXXX           Xoooooooo",
"oo...oooooXX  XX   X XXooooooooo",
"oooooooooooXXXXXX XXXXoooooooooo",
"oooooooooooooXXXXXXXoooooooooooo",
"oooooooooooooooooooooooooooooooo",
"oooooooooooooooooooooooooooooooo",
"oooooooooooooooooooooooooooooooo",
"oooooooooooooooooooooooooooooooo",
"oooooooooooooooooooooooooooooooo",
"oooooooooooooooooooooooooooooooo"
};
