/* XPM */
static const char *P_down4[] = {
/* columns rows colors chars-per-pixel */
"32 32 4 1 ",
"  c black",
". c #B5AEA8",
"X c #E4D7CC",
"o c None",
/* pixels */
"oooooooooooooooooooooooooooooooo",
"oooooooooooooooooooooooooooooooo",
"oooooooooooooooooooooooooooooooo",
"oooooooooooooooooooooooooooooooo",
"oooooooooooooooooooooooooooooooo",
"oooooooooooooooooooooooooooooooo",
"oooooooooooooXXXXXXXoooooooooooo",
"oooooooooooXXXXXXXXXXXoooooooooo",
"ooooooooooXXXXXXXXXXXXXooooooooo",
"oooooooooXXXXXXXXXXXXXXXoooooooo",
"ooo.ooooXXXXXXXXXXXXXXXXXooooooo",
"....oooXXXXXXXXXXXXXXXXXXXoooooo",
"oo..oooXXXXXXXXXXXXXXXXXXXoooooo",
"....ooXXXXX   XXXXX   XXXXXooooo",
"o.o.ooXXXX     XXX     XXXXooooo",
"ooo.ooXXXX     XXX     XXXX.oooo",
"ooo...XXXXX   XXXXX   XXXXX.oooo",
"oooo..XXXXXXXXXXXXXXXXXXXXXo.ooo",
"ooooooXXXXXXXXXXXXXXXXXXXXXo.ooo",
"oooooooXXXXXX  X   XX XXXXoo.ooo",
"oooooooXXXX            XXXoo...o",
"ooooooooXXX            XXoo...oo",
"oooooooooXXX           Xooo...oo",
"ooooooooooXX  XX   X XXooo..o.oo",
"oooooooooooXXXXXX XXXXoooo.oo..o",
"oooooooooooooXXXXXXXoooooo.ooo.o",
"oooooooooooooooooooooooooo.ooooo",
"oooooooooooooooooooooooooooooooo",
"oooooooooooooooooooooooooooooooo",
"oooooooooooooooooooooooooooooooo",
"oooooooooooooooooooooooooooooooo",
"oooooooooooooooooooooooooooooooo"
};
