/* XPM */
static const char *P_left3[] = {
/* columns rows colors chars-per-pixel */
"32 32 4 1 ",
"  c black",
". c #B5AEA8",
"X c #E4D7CC",
"o c None",
/* pixels */
"oooooooooooooooooooooooooooooooo",
"oooooooooooooooooooooooooooooooo",
"oooooooooooooooooooooooooooooooo",
"oooooooooooooooooooooooooooooooo",
"oooooooooooooooooooooooooooooooo",
"ooooooooooooXXXXXXXooooooooooooo",
"ooooooooooXXXXXXXXXXXooooooooooo",
"oooooooooXXXXXXXXXXXXXoooooooooo",
"ooooooooXXXXXXXXXXXXXXXooooooooo",
"oooooooXXXXXXXXXXXXXXXXXoooooooo",
"ooooooXXXXXXXXXXXXXXXXXXXooooooo",
"ooooooXXXXXXXXXXXXXXXXXXXooooooo",
"oooooXXXXX   XXXXXXXXXXXXXoooooo",
"o..ooXXXX     XXXXX.XXXXXXoooooo",
"oo..oXXXX     XXXX....XXXXoooooo",
"oo...XXXXX   XXXX....XXXXXoooooo",
".......XXXXXXXXX.....XXXXXoooooo",
"o...oX...............XXXXXoooooo",
"o.ooooX X......XXXXXXXXXXooooooo",
"oooooo    XXXXXXXXXXXXXXXooooooo",
"oooooooXX X  XXXXXXXXXXX.ooooooo",
"ooooooooX     XXXXXXXXX...oooooo",
"oooooooooXXXXXXXXXXXXXoo..oooooo",
"ooooooooooXXXXXXXXXXXoooo..ooooo",
"ooooooooooooXXXXXXXoooooo...oooo",
"oooooooooooooooooooooooo.....ooo",
"ooooooooooooooooooooooo..o.o...o",
"ooooooooooooooooooooooo.oo.ooooo",
"oooooooooooooooooooooooooo.ooooo",
"oooooooooooooooooooooooooooooooo",
"oooooooooooooooooooooooooooooooo",
"oooooooooooooooooooooooooooooooo"
};
