/* XPM */
static const char *P_left2[] = {
/* columns rows colors chars-per-pixel */
"32 32 4 1 ",
"  c black",
". c #B5AEA8",
"X c #E4D7CC",
"o c None",
/* pixels */
"oooooooooooooooooooooooooooooooo",
"oooooooooooooooooooooooooooooooo",
"oooooooooooooooooooooooooooooooo",
"oooooooooooooooooooooooooooooooo",
"oooooooooooooooooooooooooooooooo",
"oooooooooooooooooooooooooooooooo",
"ooooooooooooXXXXXXXooooooooooooo",
"ooooooooooXXXXXXXXXXXooooooooooo",
"oooooooooXXXXXXXXXXXXXoooooooooo",
"ooooooooXXXXXXXXXXXXXXXooooooooo",
"oooooooXXXXXXXXXXXXXXXXXoooooooo",
"ooooooXXXXXXXXXXXXXXXXXXXooooooo",
"ooooooXXXXXXXXXXXXXXXXXXXooooooo",
"oooooXXXXX   XXXXXXXXXXXXXoooooo",
"oooooXXXX     XXXXX.XXXXXXoooooo",
"oooooXXXX     XXXX...XXXXXoooooo",
"oooooXXXXX   XXXXX....XXXXoooooo",
"oooooXXXXXXXXXXXXXX...XXXXoooooo",
"oooooXXXXXXXXXXXXXX...XXXXoooooo",
"ooooooX X  XXXXXXXXX..XXXooooooo",
"oooooo     XXXXXXXXX..XXXooooooo",
"ooooooo      XXXXXXXX.XXoooooooo",
"oooooooo      XXXXXXX.Xooooooooo",
"ooooooooo XXXXXXXXXXX.oooooooooo",
"ooooooooooXXXXXXXXXXX..ooooooooo",
"ooooooooooooXXXXXXXooo.ooooooooo",
"ooooooooooooooooooooo..ooooooooo",
"ooooooooooooooooooo..ooooooooooo",
"oooooooooooooo......oooooooooooo",
"oooooooooooooooo..o.oooooooooooo",
"oooooooooooooooo.oo.oooooooooooo",
"ooooooooooooooooooo.oooooooooooo"
};
