/* XPM */
static const char *P_left4[] = {
/* columns rows colors chars-per-pixel */
"32 32 4 1 ",
"  c black",
". c #B5AEA8",
"X c #E4D7CC",
"o c None",
/* pixels */
"oooooooooooooooooooooooooooooooo",
"oooooooooooooooooooooooooooooooo",
"oooooooooooooooooooooooooooooooo",
"oooooooooooooooooooooooooooooooo",
"oooooooooooooooooooooooooooooooo",
"oooooooooooooooooooooooooooooooo",
"ooooooooooooXXXXXXXooooooooooooo",
"ooooooooooXXXXXXXXXXXooooooooooo",
"oooooooooXXXXXXXXXXXXXoooooooooo",
"ooooooooXXXXXXXXXXXXXXXooooooooo",
"oooooooXXXXXXXXXXXXXXXXXoooooooo",
"ooooooXXXXXXXXXXXXXXXXXXXooooooo",
"ooooooXXXXXXXXXXXXXXXXXXXooooooo",
"oooooXXXXX   XXXXXXXXXXXXXoooooo",
"oooooXXXX     XXXXX.XXXXXXoooooo",
"oooooXXXX     XXXX...XXXXXoooooo",
"oooooXXXXX   XXXXX....XXXXoooooo",
"oooooXXXXXXXXXXXXX...XXXXXoooooo",
"oooooXXXXXXXXXXXXX...XXXXXoooooo",
"ooooooX X  XXXXXXX..XXXXXooooooo",
"oooooo     XXXXXXX.XXXXXXooooooo",
"ooooooo      XXXX..XXXXXoooooooo",
"oooooooo      XX..XXXXXooooooooo",
"ooooooooo   XXX..XXXXX.ooooooooo",
"oooooooooo XXX..XXXXXX.ooooooooo",
"oooooo.oooooX..XXXXooo.ooooooooo",
"oooooo..oooo..oooooooo..oooooooo",
"ooooooo..oo..ooooooooo..oooooooo",
"oooooo.......oooooooo.....oooooo",
"oooooo..oo..oooooooo..o.o.oooooo",
"oooooo.oooooooooooooooo.oooooooo",
"oooooooooooooooooooooooooooooooo"
};
