/* XPM */
static const char *P_left1[] = {
/* columns rows colors chars-per-pixel */
"32 32 4 1 ",
"  c black",
". c #B5AEA8",
"X c #E4D7CC",
"o c None",
/* pixels */
"oooooooooooooooooooooooooooooooo",
"oooooooooooooooooooooooooooooooo",
"o.o.o..ooooooooooooooooooooooooo",
"o.o...oooooooooooooooooooooooooo",
"o.....oooooooooooooooooooooooooo",
"oo..ooooooooXXXXXXXooooooooooooo",
"oo.oooooooXXXXXXXXXXXooooooooooo",
"oo.ooooooXXXXXXXXXXXXXoooooooooo",
"oo.oooooXXXXXXXXXXXXXXXooooooooo",
"oo.ooooXXXXXXXXXXXXXXXXXoooooooo",
"oo.oooXXXXXXXXXXXXXXXXXXXooooooo",
"oo.oooXXXXXXXXXXXXXXXXXXXooooooo",
"oo..oXXXXX   XXXXXXXXXXXXXoooooo",
"ooo.oXXXX     XXXXX.XXXXXXoooooo",
"ooo..XXXX     XXXX.....XXXoooooo",
"oooooXXXXX   XXXXX.........ooooo",
"oooooXXXXXXXXXXXXXXX........oooo",
"oooooXXXXXXXXXXXXXXXXXXX.....ooo",
"ooooooX XXXXXXXXXXXXXXXXXoo..ooo",
"oooooo    XXXXXXXXXXXXXXXooo..oo",
"oooooooXX X  XXXXXXXXXXXooooo.oo",
"ooooooooX     XXXXXXXXXoooooo.oo",
"oooooooooXXXXXXXXXXXXXooooooo.oo",
"ooooooooooXXXXXXXXXXXooooooo..oo",
"ooooooooooooXXXXXXXooooooooo.ooo",
"oooooooooooooooooooooooooooo.ooo",
"ooooooooooooooooooooooooooo...oo",
"oooooooooooooooooooooooooo.....o",
"oooooooooooooooooooooooooo.o.o..",
"oooooooooooooooooooooooooooo.ooo",
"oooooooooooooooooooooooooooooooo",
"oooooooooooooooooooooooooooooooo"
};
