/* XPM */
static const char *P_right4[] = {
/* columns rows colors chars-per-pixel */
"32 32 4 1 ",
"  c black",
". c #B5AEA8",
"X c #E4D7CC",
"o c None",
/* pixels */
"oooooooooooooooooooooooooooooooo",
"oooooooooooooooooooooooooooooooo",
"oooooooooooooooooooooooooooooooo",
"oooooooooooooooooooooooooooooooo",
"oooooooooooooooooooooooooooooooo",
"oooooooooooooooooooooooooooooooo",
"oooooooooooooXXXXXXXoooooooooooo",
"oooooooooooXXXXXXXXXXXoooooooooo",
"ooooooooooXXXXXXXXXXXXXooooooooo",
"oooooooooXXXXXXXXXXXXXXXoooooooo",
"ooooooooXXXXXXXXXXXXXXXXXooooooo",
"oooooooXXXXXXXXXXXXXXXXXXXoooooo",
"oooooooXXXXXXXXXXXXXXXXXXXoooooo",
"ooooooXXXXXXXXXXXXX   XXXXXooooo",
"ooooooXXXXXX.XXXXX     XXXXooooo",
"ooooooXXXXX...XXXX     XXXXooooo",
"ooooooXXXX....XXXXX   XXXXXooooo",
"ooooooXXXXX...XXXXXXXXXXXXXooooo",
"ooooooXXXXX...XXXXXXXXXXXXXooooo",
"oooooooXXXXX..XXXXXXX  X Xoooooo",
"oooooooXXXXXX.XXXXXXX     oooooo",
"ooooooooXXXXX..XXXX      ooooooo",
"oooooooooXXXXX..XX      oooooooo",
"ooooooooo.XXXXX..XXX   ooooooooo",
"ooooooooo.XXXXXX..XXX oooooooooo",
"ooooooooo.oooXXXX..Xooooo.oooooo",
"oooooooo..oooooooo..oooo..oooooo",
"oooooooo..ooooooooo..oo..ooooooo",
"oooooo.....oooooooo.......oooooo",
"oooooo.o.o..oooooooo..oo..oooooo",
"oooooooo.oooooooooooooooo.oooooo",
"oooooooooooooooooooooooooooooooo"
};
