/* XPM */
static const char *P_right3[] = {
/* columns rows colors chars-per-pixel */
"32 32 4 1 ",
"  c black",
". c #B5AEA8",
"X c #E4D7CC",
"o c None",
/* pixels */
"oooooooooooooooooooooooooooooooo",
"oooooooooooooooooooooooooooooooo",
"oooooooooooooooooooooooooooooooo",
"oooooooooooooooooooooooooooooooo",
"oooooooooooooooooooooooooooooooo",
"oooooooooooooXXXXXXXoooooooooooo",
"oooooooooooXXXXXXXXXXXoooooooooo",
"ooooooooooXXXXXXXXXXXXXooooooooo",
"oooooooooXXXXXXXXXXXXXXXoooooooo",
"ooooooooXXXXXXXXXXXXXXXXXooooooo",
"oooooooXXXXXXXXXXXXXXXXXXXoooooo",
"oooooooXXXXXXXXXXXXXXXXXXXoooooo",
"ooooooXXXXXXXXXXXXX   XXXXXooooo",
"ooooooXXXXXX.XXXXX     XXXXoo..o",
"ooooooXXXX....XXXX     XXXXo..oo",
"ooooooXXXXX....XXXX   XXXXX...oo",
"ooooooXXXXX.....XXXXXXXXX.......",
"ooooooXXXXX...............Xo...o",
"oooooooXXXXXXXXXX......X Xoooo.o",
"oooooooXXXXXXXXXXXXXXX    oooooo",
"ooooooo.XXXXXXXXXXX  X XXooooooo",
"oooooo...XXXXXXXXX     Xoooooooo",
"oooooo..ooXXXXXXXXXXXXXooooooooo",
"ooooo..ooooXXXXXXXXXXXoooooooooo",
"oooo...ooooooXXXXXXXoooooooooooo",
"ooo.....oooooooooooooooooooooooo",
"o...o.o..ooooooooooooooooooooooo",
"ooooo.oo.ooooooooooooooooooooooo",
"ooooo.oooooooooooooooooooooooooo",
"oooooooooooooooooooooooooooooooo",
"oooooooooooooooooooooooooooooooo",
"oooooooooooooooooooooooooooooooo"
};
