/* XPM */
static const char *P_right2[] = {
/* columns rows colors chars-per-pixel */
"32 32 4 1 ",
"  c black",
". c #B5AEA8",
"X c #E4D7CC",
"o c None",
/* pixels */
"oooooooooooooooooooooooooooooooo",
"oooooooooooooooooooooooooooooooo",
"oooooooooooooooooooooooooooooooo",
"oooooooooooooooooooooooooooooooo",
"oooooooooooooooooooooooooooooooo",
"oooooooooooooooooooooooooooooooo",
"oooooooooooooXXXXXXXoooooooooooo",
"oooooooooooXXXXXXXXXXXoooooooooo",
"ooooooooooXXXXXXXXXXXXXooooooooo",
"oooooooooXXXXXXXXXXXXXXXoooooooo",
"ooooooooXXXXXXXXXXXXXXXXXooooooo",
"oooooooXXXXXXXXXXXXXXXXXXXoooooo",
"oooooooXXXXXXXXXXXXXXXXXXXoooooo",
"ooooooXXXXXXXXXXXXX   XXXXXooooo",
"ooooooXXXXXX.XXXXX     XXXXooooo",
"ooooooXXXXX...XXXX     XXXXooooo",
"ooooooXXXX....XXXXX   XXXXXooooo",
"ooooooXXXX...XXXXXXXXXXXXXXooooo",
"ooooooXXXX...XXXXXXXXXXXXXXooooo",
"oooooooXXX..XXXXXXXXX  X Xoooooo",
"oooooooXXX..XXXXXXXXX     oooooo",
"ooooooooXX.XXXXXXXX      ooooooo",
"oooooooooX.XXXXXXX      oooooooo",
"oooooooooo.XXXXXXXXXXX ooooooooo",
"ooooooooo..XXXXXXXXXXXoooooooooo",
"ooooooooo.oooXXXXXXXoooooooooooo",
"ooooooooo..ooooooooooooooooooooo",
"ooooooooooo..ooooooooooooooooooo",
"oooooooooooo......oooooooooooooo",
"oooooooooooo.o..oooooooooooooooo",
"oooooooooooo.oo.oooooooooooooooo",
"oooooooooooo.ooooooooooooooooooo"
};
