/* XPM */
static const char *P_right1[] = {
/* columns rows colors chars-per-pixel */
"32 32 4 1 ",
"  c black",
". c #B5AEA8",
"X c #E4D7CC",
"o c None",
/* pixels */
"oooooooooooooooooooooooooooooooo",
"oooooooooooooooooooooooooooooooo",
"ooooooooooooooooooooooooo..o.o.o",
"oooooooooooooooooooooooooo...o.o",
"oooooooooooooooooooooooooo.....o",
"oooooooooooooXXXXXXXoooooooo..oo",
"oooooooooooXXXXXXXXXXXooooooo.oo",
"ooooooooooXXXXXXXXXXXXXoooooo.oo",
"oooooooooXXXXXXXXXXXXXXXooooo.oo",
"ooooooooXXXXXXXXXXXXXXXXXoooo.oo",
"oooooooXXXXXXXXXXXXXXXXXXXooo.oo",
"oooooooXXXXXXXXXXXXXXXXXXXooo.oo",
"ooooooXXXXXXXXXXXXX   XXXXXo..oo",
"ooooooXXXXXX.XXXXX     XXXXo.ooo",
"ooooooXXX.....XXXX     XXXX..ooo",
"ooooo.........XXXXX   XXXXXooooo",
"oooo........XXXXXXXXXXXXXXXooooo",
"ooo.....XXXXXXXXXXXXXXXXXXXooooo",
"ooo..ooXXXXXXXXXXXXXXXXX Xoooooo",
"oo..oooXXXXXXXXXXXXXXX    oooooo",
"oo.oooooXXXXXXXXXXX  X XXooooooo",
"oo.ooooooXXXXXXXXX     Xoooooooo",
"oo.oooooooXXXXXXXXXXXXXooooooooo",
"oo..oooooooXXXXXXXXXXXoooooooooo",
"ooo.oooooooooXXXXXXXoooooooooooo",
"ooo.oooooooooooooooooooooooooooo",
"oo...ooooooooooooooooooooooooooo",
"o.....oooooooooooooooooooooooooo",
"..o.o.oooooooooooooooooooooooooo",
"ooo.oooooooooooooooooooooooooooo",
"oooooooooooooooooooooooooooooooo",
"oooooooooooooooooooooooooooooooo"
};
