/* XPM */
static const char *P_up3[] = {
/* columns rows colors chars-per-pixel */
"32 32 3 1 ",
"  c #B5AEA8",
". c #E4D7CC",
"X c None",
/* pixels */
"XXXXXXXXXXXXXXXXXXXXXXXXXXXXXXXX",
"XXXXXXXXXXXXXXXXXXXXXXXXXXXXXXXX",
"XXXXXXXXXXXXXXXXXXXXXXXXXXXXXXXX",
" XX XXXXXXXXXXXXXXXXXXXXXXXXXXXX",
"  X X XXXXXXXXXXXXXXXXXXXXXXXXXX",
"X X X XXXXXXX.......XXXXXXXXXXXX",
"X   X XXXXX...........XXXXXXXXXX",
"XX    XXXX.............XXXXXXXXX",
"XXX  XXXX...............XXXXXXXX",
"XXX XXXX.................XXXXXXX",
"XXX XXX...................XXXXXX",
"XXX XXX...................XXXXXX",
"XX XXX.....................XXXXX",
"XX  XX.....................XXXXX",
"XXX XX.....................  XXX",
"XXXX  .....................X XXX",
"XXXXX .....................X XXX",
"XXXXXX.....................X  XX",
"XXXXXXX...................XXX XX",
"XXXXXXX...................XXX XX",
"XXXXXXXX.................XXXX XX",
"XXXXXXXXX...............XXXXX XX",
"XXXXXXXXXX.............XXXXXX XX",
"XXXXXXXXXXX...........XXXXXX  XX",
"XXXXXXXXXXXXX.......XXXXXXXX XXX",
"XXXXXXXXXXXXXXXXXXXXXXXXX      X",
"XXXXXXXXXXXXXXXXXXXXXXXXX XX X X",
"XXXXXXXXXXXXXXXXXXXXXXXXX XX X X",
"XXXXXXXXXXXXXXXXXXXXXXXXX XX XXX",
"XXXXXXXXXXXXXXXXXXXXXXXXXXXXXXXX",
"XXXXXXXXXXXXXXXXXXXXXXXXXXXXXXXX",
"XXXXXXXXXXXXXXXXXXXXXXXXXXXXXXXX"
};
