/* XPM */
static const char *P_up4[] = {
/* columns rows colors chars-per-pixel */
"32 32 3 1 ",
"  c #B5AEA8",
". c #E4D7CC",
"X c None",
/* pixels */
"XXXXXXXXXXXXXXXXXXXXXXXXXXXXXXXX",
"XXXXXXXXXXXXXXXXXXXXXXXXXXXXXXXX",
"XXXXXXXXXXXXXXXXXXXXXXXXXXXXXXXX",
"XXXXXXXXXXXXXXXXXXXXXXXXXXXXXXXX",
"XXXXXXXXXXXXXXXXXXXXXXXXXXXXXXXX",
"XXXXXXXXXXXXXXXXXXXXXXXXXXXXXXXX",
"XXXXXXXXXXXXX.......XXXXXXXXXXXX",
"XXXXXXXXXXX...........XXXXXXXXXX",
"XXXXXXXXXX.............XXXXXXXXX",
"XXXXXXXXX...............XXXXXXXX",
"XXX XXXX.................XXXXXXX",
"    XXX...................XXXXXX",
"XX  XXX...................XXXXXX",
"    XX.....................XXXXX",
"X X XX.....................XXXXX",
"XXX XX..................... XXXX",
"XXX   ..................... XXXX",
"XXXX  .....................X XXX",
"XXXXXX.....................X XXX",
"XXXXXXX...................XX XXX",
"XXXXXXX...................XX   X",
"XXXXXXXX.................XX   XX",
"XXXXXXXXX...............XXX   XX",
"XXXXXXXXXX.............XXX  X XX",
"XXXXXXXXXXX...........XXXX XX  X",
"XXXXXXXXXXXXX.......XXXXXX XXX X",
"XXXXXXXXXXXXXXXXXXXXXXXXXX XXXXX",
"XXXXXXXXXXXXXXXXXXXXXXXXXXXXXXXX",
"XXXXXXXXXXXXXXXXXXXXXXXXXXXXXXXX",
"XXXXXXXXXXXXXXXXXXXXXXXXXXXXXXXX",
"XXXXXXXXXXXXXXXXXXXXXXXXXXXXXXXX",
"XXXXXXXXXXXXXXXXXXXXXXXXXXXXXXXX"
};
