/* XPM */
static const char *P_up2[] = {
/* columns rows colors chars-per-pixel */
"32 32 3 1 ",
"  c #B5AEA8",
". c #E4D7CC",
"X c None",
/* pixels */
"XXXXXXXXXXXXXXXXXXXXXXXXXXXXXXXX",
"XXXXXXXXXXXXXXXXXXXXXXXXXXXXXXXX",
"XXXXXXXXXXXXXXXXXXXXXXXXXXXXXXXX",
"XXXXXXXXXXXXXXXXXXXXXXXXXXXXXXXX",
"XXXXXXXXXXXXXXXXXXXXXXXXXXXXXXXX",
"XXXXXXXXXXXXXXXXXXXXXXXXXXXXXXXX",
"XXXXXXXXXXXXX.......XXXXXXXXXXXX",
"XXXXXXXXXXX...........XXXXXXXXXX",
"XXXXXXXXXX.............XXXXXXXXX",
"XXXXXXXXX...............XXXXXXXX",
"XXXXXXXX.................XXXXX X",
"XXXXXXX...................XXXX X",
"XXXXXXX...................XXX   ",
"XXXXXX.....................X   X",
"XXXXXX.....................X X X",
"XXXXXX.....................  X  ",
"XXXXX .....................XXXXX",
"XXXX  .....................XXXXX",
"XX   X.....................XXXXX",
"    XXX...................XXXXXX",
"XX  XXX...................XXXXXX",
"X   XXXX.................XXXXXXX",
"     XXXX...............XXXXXXXX",
"XX   XXXXX.............XXXXXXXXX",
"XXXXXXXXXXX...........XXXXXXXXXX",
"XXXXXXXXXXXXX.......XXXXXXXXXXXX",
"XXXXXXXXXXXXXXXXXXXXXXXXXXXXXXXX",
"XXXXXXXXXXXXXXXXXXXXXXXXXXXXXXXX",
"XXXXXXXXXXXXXXXXXXXXXXXXXXXXXXXX",
"XXXXXXXXXXXXXXXXXXXXXXXXXXXXXXXX",
"XXXXXXXXXXXXXXXXXXXXXXXXXXXXXXXX",
"XXXXXXXXXXXXXXXXXXXXXXXXXXXXXXXX"
};
