/* XPM */
static const char *P_up1[] = {
/* columns rows colors chars-per-pixel */
"32 32 3 1 ",
"  c #B5AEA8",
". c #E4D7CC",
"X c None",
/* pixels */
"XXXXXXXXXXXXXXXXXXXXXXXXXXXXXXXX",
"XXXXXXXXXXXXXXXXXXXXXXXXXXXXXXXX",
"XXXXXXXXXXXXXXXXXXXXXXXXX  X X X",
"XXXXXXXXXXXXXXXXXXXXXXXXXX   X X",
"XXXXXXXXXXXXXXXXXXXXXXXXXX     X",
"XXXXXXXXXXXXX.......XXXXXXXX  XX",
"XXXXXXXXXXX...........XXXXXXX XX",
"XXXXXXXXXX.............XXXXXX XX",
"XXXXXXXXX...............XXXXX XX",
"XXXXXXXX.................XXXX XX",
"XXXXXXX...................XXX XX",
"XXXXXXX...................XXX XX",
"XXXXXX.....................X  XX",
"XXXXXX.....................X XXX",
"XXXXXX.....................  XXX",
"XXXXX .....................XXXXX",
"XXXX  .....................XXXXX",
"XXX  X.....................XXXXX",
"XXX XXX...................XXXXXX",
"XX  XXX...................XXXXXX",
"XX XXXXX.................XXXXXXX",
"XX XXXXXX...............XXXXXXXX",
"XX XXXXXXX.............XXXXXXXXX",
"XX  XXXXXXX...........XXXXXXXXXX",
"XXX XXXXXXXXX.......XXXXXXXXXXXX",
"XXX XXXXXXXXXXXXXXXXXXXXXXXXXXXX",
"XX   XXXXXXXXXXXXXXXXXXXXXXXXXXX",
"X     XXXXXXXXXXXXXXXXXXXXXXXXXX",
"  X X XXXXXXXXXXXXXXXXXXXXXXXXXX",
"XXX XXXXXXXXXXXXXXXXXXXXXXXXXXXX",
"XXXXXXXXXXXXXXXXXXXXXXXXXXXXXXXX",
"XXXXXXXXXXXXXXXXXXXXXXXXXXXXXXXX"
};
