/* XPM */
static const char *wall2[] = {
/* columns rows colors chars-per-pixel */
"32 32 8 1 ",
"  c #FF3A22",
". c #FFBB29",
"X c #F5DD48",
"o c #E8F36F",
"O c #EAF19F",
"+ c #EFF3C4",
"@ c white",
"# c None",
/* pixels */
"##########################   ###",
"########################## . ###",
"##############   ########  . ###",
"##############   ######## .. ###",
"####  #######  .  ####### .. ###",
"###    #####  ..  ####### .. ###",
"### .. ###    ....  ##### .  ###",
"### .. ##   ...XXX.   ####  ####",
"### .. #  ....XooX...  #########",
"### . ## ..XXXXooXXX.  #########",
"###   ## .XXoooOOooX..  ########",
"#### #   .XooOOOOOoXX..  #######",
"######  ..XoOO+++OooXX..   #####",
"#####  ..XXoO++@+OOooXXX..  ####",
"##### ...XooO+@@+++OoooXX.. ####",
"####  .XXXooO+@@+@+OoOOooX. ####",
"#### ..XoooOO+@++@+OOOOOoX. ####",
"#### .XooOOOO+@@@@+OOO+OoX. ####",
"#### .XoOO++++@@@@+++++OOX. ####",
"#### .XoO++@@+@@@@@@@+++oo. ####",
"#### .XoO+@@@@@@@@@@@@++OX. ####",
"#### .XoO+@@@@@@@@@@@@+Ooo. ####",
"#### .XoO++@@@@@@@@@@++OoX. ####",
"####  XoOO++@@@@@@@@@++OoX  ####",
"##### XooOO+@@@@@@@@@@+oX. #####",
"##### XoooO++@@@@@@@@@+oX. #####",
"##### XXXoOO+@@@@@@@@++oX. #####",
"###### .XooO++@@@@@+++Oo.  #####",
"###### ...oOO+@@@@++OOO.. ######",
"#########.ooO+@@@@+OOOo..#######",
"###########oOO+++++O....########",
"################################"
};
